src/components/common/icons/language.svg

<svg height="46" viewBox="0 0 46 46" width="46" xmlns="http://www.w3.org/2000/svg"><g fill="#010202" fill-rule="evenodd" transform="translate(-1)"><path d="m23.6917276 4.02952069c10.5944483 0 19.2116552 8.61882761 19.2116552 19.21327591 0 10.5944482-8.6172069 19.2148965-19.2116552 19.2148965s-19.21327588-8.6204483-19.21327588-19.2148965c0-10.5944483 8.61882758-19.21327591 19.21327588-19.21327591m0-3.39048276c-12.4841724 0-22.60375863 10.11958617-22.60375863 22.60375867 0 12.4841724 10.11958623 22.6053793 22.60375863 22.6053793s22.6021379-10.1212069 22.6021379-22.6053793c0-12.4841725-10.1179655-22.60375867-22.6021379-22.60375867"/><path d="m2.66927586 24.9391724h42.04393104v-3.3904827h-42.04393104z"/><path d="m21.996 44.7958621h3.3904828v-43.10548279h-3.3904828z"/><path d="m20.3474345 2.04952414c-6.1699655 5.44389655-9.6528276 13.01737926-9.6528276 21.19375866 0 7.9511034 3.2932414 15.3317241 9.1471724 20.7399655 1.8767586.282 3.8183448.4294827 5.806931.4294827.4829656 0 .9643104-.0097241 1.4440345-.025931 6.1326897-5.4406552 9.5944828-12.993069 9.5944828-21.1435172 0-8.3497931-3.6303448-16.07237935-10.0466552-21.53896556-.329-.00810345-.6596207-.01458621-.9918621-.01458621-1.8135517 0-3.5833448.12317242-5.3012758.35979311m12.9493103 21.19375866c0 7.6593793-3.482862 14.7255862-9.6058276 19.5763103-6.1229655-4.8507241-9.6058275-11.916931-9.6058275-19.5763103 0-7.6593794 3.482862-14.72558625 9.6058275-19.57631039 6.1229656 4.85072414 9.6058276 11.91693099 9.6058276 19.57631039"/><path d="m40.1613379 10.9871414c-10.8326896 1.8313793-22.1045862 1.8313793-32.93889652 0h-2.41158621l-.611 2.9010345c6.38389653 1.2430689 12.94444823 1.8702758 19.49041383 1.8702758 6.5524482 0 13.1097586-.6272069 19.4936551-1.8702758l-.611-2.9010345z"/><path d="m7.22049655 35.5000724c10.83268965-1.8313793 22.10458625-1.8313793 32.94051725 0h2.4115862l.611-2.9010345c-6.3855172-1.2446896-12.9444483-1.8718965-19.4920345-1.8718965-6.5508276 0-13.1081379.6272069-19.49365516 1.8718965l.611 2.9010345z"/></g></svg>

<?xml version="1.0" encoding="UTF-8"?>
<svg width="46px" height="46px" viewBox="0 0 46 46" version="1.1" xmlns="http://www.w3.org/2000/svg" xmlns:xlink="http://www.w3.org/1999/xlink">
    <!-- Generator: Sketch 52.5 (67469) - http://www.bohemiancoding.com/sketch -->
    <title>Icons/.language</title>
    <desc>Created with Sketch.</desc>
    <g id="Vapaaehtoisalusta-Layouts" stroke="none" stroke-width="1" fill="none" fill-rule="evenodd">
        <g id="HKI-Ikonit" transform="translate(-553.000000, -659.000000)" fill="#010202">
            <g id="Icons/.language" transform="translate(552.000000, 659.000000)">
                <path d="M23.6917276,4.02952069 C34.2861759,4.02952069 42.9033828,12.6483483 42.9033828,23.2427966 C42.9033828,33.8372448 34.2861759,42.4576931 23.6917276,42.4576931 C13.0972793,42.4576931 4.47845172,33.8372448 4.47845172,23.2427966 C4.47845172,12.6483483 13.0972793,4.02952069 23.6917276,4.02952069 M23.6917276,0.639037931 C11.2075552,0.639037931 1.08796897,10.7586241 1.08796897,23.2427966 C1.08796897,35.726969 11.2075552,45.8481759 23.6917276,45.8481759 C36.1759,45.8481759 46.2938655,35.726969 46.2938655,23.2427966 C46.2938655,10.7586241 36.1759,0.639037931 23.6917276,0.639037931" id="Fill-65"></path>
                <polygon id="Fill-66" points="2.66927586 24.9391724 44.7132069 24.9391724 44.7132069 21.5486897 2.66927586 21.5486897"></polygon>
                <polygon id="Fill-67" points="21.996 44.7958621 25.3864828 44.7958621 25.3864828 1.69037931 21.996 1.69037931"></polygon>
                <path d="M20.3474345,2.04952414 C14.177469,7.49342069 10.6946069,15.0669034 10.6946069,23.2432828 C10.6946069,31.1943862 13.9878483,38.5750069 19.8417793,43.9832483 C21.7185379,44.2652483 23.6601241,44.412731 25.6487103,44.412731 C26.1316759,44.412731 26.6130207,44.4030069 27.0927448,44.3868 C33.2254345,38.9461448 36.6872276,31.393731 36.6872276,23.2432828 C36.6872276,14.8934897 33.0568828,7.17090345 26.6405724,1.70431724 C26.3115724,1.69621379 25.9809517,1.68973103 25.6487103,1.68973103 C23.8351586,1.68973103 22.0653655,1.81290345 20.3474345,2.04952414 M33.2967448,23.2432828 C33.2967448,30.9026621 29.8138828,37.968869 23.6909172,42.8195931 C17.5679517,37.968869 14.0850897,30.9026621 14.0850897,23.2432828 C14.0850897,15.5839034 17.5679517,8.51769655 23.6909172,3.66697241 C29.8138828,8.51769655 33.2967448,15.5839034 33.2967448,23.2432828" id="Fill-68"></path>
                <path d="M40.1613379,10.9871414 C29.3286483,12.8185207 18.0567517,12.8185207 7.22244138,10.9871414 L4.81085517,10.9871414 L4.19985517,13.8881759 C10.5837517,15.1312448 17.1443034,15.7584517 23.690269,15.7584517 C30.2427172,15.7584517 36.8000276,15.1312448 43.1839241,13.8881759 L42.5729241,10.9871414 L40.1613379,10.9871414 Z" id="Fill-69"></path>
                <path d="M7.22049655,35.5000724 C18.0531862,33.6686931 29.3250828,33.6686931 40.1610138,35.5000724 L42.5726,35.5000724 L43.1836,32.5990379 C36.7980828,31.3543483 30.2391517,30.7271414 23.6915655,30.7271414 C17.1407379,30.7271414 10.5834276,31.3543483 4.19791034,32.5990379 L4.80891034,35.5000724 L7.22049655,35.5000724 Z" id="Fill-70"></path>
            </g>
        </g>
    </g>
</svg>
